public/icons/comment.svg

<svg xmlns="http://www.w3.org/2000/svg"  viewBox="0 0 48 48" width="48px" height="48px"><path d="M 24 4 C 12.972292 4 4 12.972292 4 24 C 4 27.275316 4.8627078 30.334853 6.2617188 33.064453 L 4.09375 40.828125 C 3.5887973 42.631528 5.3719261 44.41261 7.1757812 43.908203 L 14.943359 41.740234 C 17.671046 43.137358 20.726959 44 24 44 C 35.027708 44 44 35.027708 44 24 C 44 12.972292 35.027708 4 24 4 z M 24 7 C 33.406292 7 41 14.593708 41 24 C 41 33.406292 33.406292 41 24 41 C 20.997029 41 18.192258 40.218281 15.744141 38.853516 A 1.50015 1.50015 0 0 0 14.609375 38.71875 L 7.2226562 40.78125 L 9.2851562 33.398438 A 1.50015 1.50015 0 0 0 9.1503906 32.263672 C 7.7836522 29.813476 7 27.004518 7 24 C 7 14.593708 14.593708 7 24 7 z"/></svg>

<svg xmlns="http://www.w3.org/2000/svg" xmlns:xlink="http://www.w3.org/1999/xlink" viewBox="0,0,256,256" width="48px" height="48px"><g fill="#65676b" fill-rule="nonzero" stroke="none" stroke-width="1" stroke-linecap="butt" stroke-linejoin="miter" stroke-miterlimit="10" stroke-dasharray="" stroke-dashoffset="0" font-family="none" font-weight="none" font-size="none" text-anchor="none" style="mix-blend-mode: normal"><g transform="scale(5.33333,5.33333)"><path d="M24,4c-11.02771,0 -20,8.97229 -20,20c0,3.27532 0.86271,6.33485 2.26172,9.06445l-2.16797,7.76367c-0.50495,1.8034 1.27818,3.58449 3.08203,3.08008l7.76758,-2.16797c2.72769,1.39712 5.7836,2.25977 9.05664,2.25977c11.02771,0 20,-8.97229 20,-20c0,-11.02771 -8.97229,-20 -20,-20zM24,7c9.40629,0 17,7.59371 17,17c0,9.40629 -7.59371,17 -17,17c-3.00297,0 -5.80774,-0.78172 -8.25586,-2.14648c-0.34566,-0.19287 -0.75354,-0.24131 -1.13477,-0.13477l-7.38672,2.0625l2.0625,-7.38281c0.10655,-0.38122 0.05811,-0.7891 -0.13477,-1.13477c-1.36674,-2.4502 -2.15039,-5.25915 -2.15039,-8.26367c0,-9.40629 7.59371,-17 17,-17z"></path></g></g></svg>
